X:1
T:Title
%%score { 1 | ( 2 3 ) }
L:1/8
M:3/4
K:Ab
V:1 treble nm="Grand Piano"
V:2 bass 
V:3 bass 
V:1
 z2 z[Q:1/4=92] [CE] [CE][CE] | [DF]3 [FA] [EG][DF] | [CE]3 [CE] [CE][CE] | %3
 [CEA]3 [CEA] [DEG][CA] |[M:3/8] [EGB]3 | [A,CE][A,CE][A,CE] |[M:3/4] [A,DF]3 [A,FA] [A,EG][A,DF] | %7
 [A,CE]3 [A,E] [A,DF].[Fd] | [EAc][DFB] [CEA]2 [B,EG]2 |[M:3/8] [CEA]3 | eed | %11
[M:3/4] c3 [EGB] [EA][EAc] | [GB]3 [GB] [GB][GB] | c3 c BA |[M:3/8] B3 | [CE][CE][CE] | %16
[M:3/4] [A,DF]3 [A,FA] [A,EG][A,DF] | [A,CE]3 [A,E] [A,DF].[Fd] | [EAc][DFB] [CEA]2 [B,EG]2 | %19
[M:11/8] [CEA]3 z z z z z z z2 |] %20
V:2
 z2 z [A,,A,] [A,,A,][A,,A,] | [D,A,]3 [D,A,] [D,A,][D,A,] | [A,,A,]3 [A,,A,] [A,,A,][A,,A,] | %3
 A,,3 C, B,,A,, |[M:3/8] E,3 | A,,A,,A,, |[M:3/4] D,3 D, D,D, | A,,3 C, .D,>G | C,D, E,2 E,2 | %9
[M:3/8] A,,3 | [E,G,E][F,A,E][G,B,E] |[M:3/4] [A,E]3 E, C,A,, | [E,E]3 [E,E] [E,E][E,E] | %13
 [A,EA]3 [A,E][K:bass] [G,E][F,B,=D] |[M:3/8] [E,G,E]3 | [A,,A,][A,,A,][A,,A,] | %16
[M:3/4] D,3 D, D,D, | A,,3 C, .D,>G | C,D, E,2 E,2 |[M:11/8] A,,3 z z z z z z z2 |] %20
V:3
 x6 | x6 | x6 | x6 |[M:3/8] x3 | x3 |[M:3/4] x6 | z2 z2 z [B,,B,] | x6 |[M:3/8] x3 | x3 | %11
[M:3/4] x6 | x6 | x4[K:bass] x2 |[M:3/8] x3 | x3 |[M:3/4] x6 | z2 z2 z [B,,B,] | x6 | %19
[M:11/8] x11 |] %20

